svg/design/color_filter_line.svg

<?xml version="1.0" encoding="UTF-8"?>
<svg width="24px" height="24px" viewBox="0 0 24 24" version="1.1" xmlns="http://www.w3.org/2000/svg" xmlns:xlink="http://www.w3.org/1999/xlink">
    <title>color_filter_line</title>
    <g id="页面-1" stroke="none" stroke-width="1" fill="none" fill-rule="evenodd">
        <g id="Design" transform="translate(-48.000000, 0.000000)">
            <g id="color_filter_line" transform="translate(48.000000, 0.000000)">
                 <path d="M24,0 L24,24 L0,24 L0,0 L24,0 Z M12.5934901,23.257841 L12.5819402,23.2595131 L12.5108777,23.2950439 L12.4918791,23.2987469 L12.4918791,23.2987469 L12.4767152,23.2950439 L12.4056548,23.2595131 C12.3958229,23.2563662 12.3870493,23.2590235 12.3821421,23.2649074 L12.3780323,23.275831 L12.360941,23.7031097 L12.3658947,23.7234994 L12.3769048,23.7357139 L12.4804777,23.8096931 L12.4953491,23.8136134 L12.4953491,23.8136134 L12.5071152,23.8096931 L12.6106902,23.7357139 L12.6232938,23.7196733 L12.6232938,23.7196733 L12.6266527,23.7031097 L12.609561,23.275831 C12.6075724,23.2657013 12.6010112,23.2592993 12.5934901,23.257841 L12.5934901,23.257841 Z M12.8583906,23.1452862 L12.8445485,23.1473072 L12.6598443,23.2396597 L12.6498822,23.2499052 L12.6498822,23.2499052 L12.6471943,23.2611114 L12.6650943,23.6906389 L12.6699349,23.7034178 L12.6699349,23.7034178 L12.678386,23.7104931 L12.8793402,23.8032389 C12.8914285,23.8068999 12.9022333,23.8029875 12.9078286,23.7952264 L12.9118235,23.7811639 L12.8776777,23.1665331 C12.8752882,23.1545897 12.8674102,23.1470016 12.8583906,23.1452862 L12.8583906,23.1452862 Z M12.1430473,23.1473072 C12.1332178,23.1423925 12.1221763,23.1452606 12.1156365,23.1525954 L12.1099173,23.1665331 L12.0757714,23.7811639 C12.0751323,23.7926639 12.0828099,23.8018602 12.0926481,23.8045676 L12.108256,23.8032389 L12.3092106,23.7104931 L12.3186497,23.7024347 L12.3186497,23.7024347 L12.3225043,23.6906389 L12.340401,23.2611114 L12.337245,23.2485176 L12.337245,23.2485176 L12.3277531,23.2396597 L12.1430473,23.1473072 Z" id="MingCute" fill-rule="nonzero"></path>
                <path d="M12,2 C15.3137,2 18,4.68629 18,8 C18,8.77983 17.8508,9.52578 17.5795,10.2101 C20.1269,10.9035 21.9999,13.233 21.9999,16 C21.9999,19.3137 19.3136,22 15.9999,22 C14.4629,22 13.0608,21.4214 12,20.4722 C10.9385,21.4223 9.53671,22 8,22 C4.68629,22 2,19.3137 2,16 C2,13.2331 3.87293,10.9036 6.42018,10.2102 C6.14903,9.52618 6,8.7805 6,8 C6,4.68629 8.68629,2 12,2 Z M15.9999,12 C14.9354,12 13.9681,12.4151 13.2506,13.0945 C13.728,13.9557 14,14.9469 14,16 C14,17.0541 13.7282,18.0448 13.2507,18.9057 C13.9683,19.585 14.9355,20 15.9999,20 C18.209,20 19.9999,18.2091 19.9999,16 C19.9999,13.7909 18.209,12 15.9999,12 Z M7.55029,12.025 C5.55285,12.2485 4,13.9429 4,16 C4,18.2091 5.79086,20 8,20 C10.2091,20 12,18.2091 12,16 C12,15.26 11.7999,14.5688 11.4506,13.9752 C9.90741,13.8351 8.53296,13.1107 7.55029,12.025 Z M12,4 C9.79086,4 8,5.79086 8,8 C8,10.0571 9.55282,11.7515 11.5502,11.975 C12.5319,10.8905 13.9068,10.1651 15.4506,10.0248 C15.7999,9.43123 16,8.73996 16,8 C16,5.79086 14.2091,4 12,4 Z" id="形状" fill="#09244B"></path>
            </g>
        </g>
    </g>
</svg>

<svg xmlns="http://www.w3.org/2000/svg" width="24" height="24"><g fill="none" fill-rule="evenodd"><path d="M24 0v24H0V0h24ZM12.593 23.258l-.011.002-.071.035-.02.004-.014-.004-.071-.035c-.01-.004-.019-.001-.024.005l-.004.01-.017.428.005.02.01.013.104.074.015.004.012-.004.104-.074.012-.016.004-.017-.017-.427c-.002-.01-.009-.017-.017-.018Zm.265-.113-.013.002-.185.093-.01.01-.003.011.018.43.005.012.008.007.201.093c.012.004.023 0 .029-.008l.004-.014-.034-.614c-.003-.012-.01-.02-.02-.022Zm-.715.002a.023.023 0 0 0-.027.006l-.006.014-.034.614c0 .012.007.02.017.024l.015-.002.201-.093.01-.008.004-.011.017-.43-.003-.012-.01-.01-.184-.092Z"/><path fill="#09244B" d="M12 2a6 6 0 0 1 5.58 8.21A6 6 0 1 1 12 20.472 6 6 0 1 1 6.42 10.21 6 6 0 0 1 12 2Zm4 10a3.984 3.984 0 0 0-2.75 1.095c.478.86.75 1.852.75 2.905a5.972 5.972 0 0 1-.75 2.906A4 4 0 1 0 16 12Zm-8.45.025a4 4 0 1 0 3.9 1.95 5.986 5.986 0 0 1-3.9-1.95ZM12 4a4 4 0 0 0-.45 7.975 5.989 5.989 0 0 1 3.9-1.95A4 4 0 0 0 12 4Z"/></g></svg>
